packages/sources/icons/src/vitamix/ie-fill.svg

<svg width="16" height="16" viewBox="0 0 16 16" xmlns="http://www.w3.org/2000/svg"><path d="M5.74131 13.4133C3.91197 14.4067 2.33264 14.6127 1.45997 13.74C0.563972 12.8467 1.04131 10.506 2.33531 8.15801C2.99268 6.96365 3.80505 5.86144 4.75131 4.88001C4.87597 4.75534 5.50131 4.13067 5.54264 4.13067C5.54264 4.13067 5.20931 4.33934 5.16797 4.33934C3.86797 5.06934 2.72597 6.39267 2.47664 6.68934C2.79201 5.28218 3.60343 4.03557 4.76247 3.17756C5.92151 2.31954 7.35071 1.90745 8.78864 2.01667C10.852 1.08201 12.7713 0.866006 13.5833 1.67667C14.3333 2.42534 14.2913 3.67334 13.6666 5.17134C13.66 5.18534 13.6546 5.20001 13.6486 5.21401C14.0998 6.07326 14.3348 7.02951 14.3333 8.00001C14.3333 8.25334 14.318 8.50201 14.2873 8.74667H13.7513C13.7198 8.74789 13.6882 8.74855 13.6566 8.74867H5.79264V8.87334C5.83397 10.2047 7.00064 11.3693 8.41731 11.3693C9.41731 11.3693 10.3753 10.8287 10.792 10.038H13.9786C13.6938 10.8269 13.2468 11.5474 12.6664 12.1529C12.086 12.7585 11.3852 13.2357 10.609 13.5537C9.83289 13.8717 8.99871 14.0236 8.16029 13.9994C7.32187 13.9752 6.49783 13.7756 5.74131 13.4133ZM5.33664 13.1993C4.10931 12.4902 3.17159 11.3707 2.68864 10.038C1.91464 11.5593 1.71531 12.8313 2.37597 13.4913C2.91797 14.0327 4.00131 13.9073 5.33464 13.2007L5.33664 13.1993ZM13.448 4.86134C13.4513 4.85378 13.4546 4.84622 13.458 4.83867C13.958 3.75734 14 2.84267 13.5413 2.30134C12.962 1.72267 11.848 1.80134 10.5266 2.41334C11.7398 2.89149 12.765 3.75054 13.448 4.86134ZM11.042 7.16801V7.12734C10.9586 5.75401 9.87531 4.71401 8.54197 4.71401C7.12531 4.71401 5.91797 5.83734 5.83464 7.12734V7.16867H11.042V7.16801Z"/></svg>

<svg width="16" height="16" xmlns="http://www.w3.org/2000/svg"><path d="M5.741 13.413c-1.829.994-3.408 1.2-4.281.327-.896-.893-.419-3.234.875-5.582A15.47 15.47 0 0 1 4.751 4.88c.125-.125.75-.75.792-.75 0 0-.334.21-.375.21-1.3.73-2.442 2.053-2.691 2.35a6.003 6.003 0 0 1 6.312-4.673c2.063-.935 3.982-1.151 4.794-.34.75.748.708 1.996.084 3.494-.007.014-.012.029-.018.043a5.973 5.973 0 0 1 .638 3.533h-.536a2.714 2.714 0 0 1-.094.002H5.793v.124C5.834 10.205 7 11.37 8.417 11.37c1 0 1.958-.54 2.375-1.331h3.187a6.001 6.001 0 0 1-8.238 3.375Zm-.404-.214a6.02 6.02 0 0 1-2.648-3.161c-.774 1.521-.974 2.793-.313 3.453.542.542 1.625.416 2.959-.29l.002-.002Zm8.111-8.338.01-.022c.5-1.082.542-1.996.083-2.538-.579-.578-1.693-.5-3.014.112a6.021 6.021 0 0 1 2.921 2.448Zm-2.406 2.307v-.04c-.083-1.374-1.167-2.414-2.5-2.414-1.417 0-2.624 1.123-2.707 2.413v.042h5.207v-.001Z"/></svg>
